X:1
T:O Joyful Bells of Christmas-Tide
T:O Joyful Bells of Christmas-Tide
T:Scott Werdebaugh, 2017
T:M. D. Sterling, 1896
T:Words public domain. Music © 2017 Scott Werdebaugh &amp; New Heart Music -  May be freely copied without alteration for Christian worship/devotions . All other rights reserved.
T:Words public domain. Music © 2017 Scott Werdebaugh &amp; New Heart Music -  May be freely copied without alteration for Christian worship/devotions . All other rights reserved.
C:Scott Werdebaugh, 2017
Z:Words public domain. Music © 2017 Scott Werdebaugh & New Heart Music -  May be
Z:freely copied without alteration for Christian worship/devotions . All other rights reserved.
%%score ( 1 2 ) ( 3 4 )
L:1/8
Q:1/4=108
M:9/8
K:F
V:1 treble 
V:2 treble 
V:3 bass 
V:4 bass 
V:1
"^Joyfully" [Ec] | [Fc]2 [FA] [FB]2 [EG] [FA]2 [Fc] | [EG]2 C [CA]2 [CF] [DB]2 [CA] | %3
w: 1.~O|joy- ful bells of Christ- mas-|tide, The dear old sto- ry|
w: 2.~O|joy- ful bells of Christ- mas-|tide, Re- peat the won- drous|
w: 3.~O|joy- ful bells of Christ- mas-|tide, Ring out, ring out a-|
 [EG]6 z2 [Ec] | [Fc]2 [FA] [FB]2 [Ec] (A>G)[CF] | [EG]2 [EG] [FA]2 [Fc] [Fd]2 [GB] | %6
w: tell, How|long a- go a bright * new|star In Heav’n was seen, and|
w: tale. How|long a- go to shep- * herds|came An an- gel choir, and|
w: gain, How|long a- go a Sav- * ior’s|birth, Good will and peace be-|
 [Bd]2 [Fd] [Ec]4 z [EB] | [Fc]2 [FA] [DB]2 [Ec] [CA]2 [CF] | %8
w: from a- far The|wise men brought to Him they|
w: while a- flame With|Heav’n’s own light the skies are|
w: gan on earth; Good|will and peace no more to|
 [EG]2 [EG] [FA]2 [CF] ([DB]>[CA])[EG] | [CF]6 z2 [Ec] | [Fc]2 [FA] [DB]2 [Ec] [CA]2 [CF] | %11
w: sought The Child Em- man- * u-|el. O|joy- ful bells of Christ- mas-|
w: bright, The Christ Child’s com- * ing|hail. O|joy- ful bells of Christ- mas-|
w: cease, From Heav’n to sin- * ful|men. O|joy- ful bells of Christ- mas-|
 [EG]2 [Ec] [Fc]2 [FA] (B>A)[EG] | [CF]6 z2"^Play 3 times" :| %13
w: tide, The dear old sto- * ry|tell.|
w: tide, Re- peat the won- * drous|tale.|
w: tide, Ring out, ring out * a-|gain.|
V:2
 x | x9 | x2 C x6 | x9 | x6 C2 x | x9 | x9 | x9 | x9 | x9 | x9 | x6 D3 | x8 :| %13
V:3
 [C,G,] | [F,A,]2 [F,C] [B,D]2 [C,C] [F,C]2 [F,A,] | [C,C]2 [C,G,] [F,A,]2 [F,A,] [B,,F,]2 [F,A,] | %3
 [C,C]6 z2 [C,G,] | [F,A,]2 [F,C] [B,D]2 [G,C] (A,>B,)[F,A,] | %5
 [C,C]2 [C,C] [F,C]2 [F,A,] [B,D]2 [C,E] | [B,,F]2 [B,,B,] [C,G,]4 z [C,G,] | %7
 [F,A,]2 [F,C] [B,,F,]2 [C,G,] [F,A,]2 [F,A,] | [C,C]2 [C,C] [F,C]2 [F,A,] ([B,,F,]>[F,A,])[C,C] | %9
 [F,A,]6 z2 [C,G,] | [F,A,]2 [F,C] [B,,F,]2 [C,G,] [F,A,]2 [F,A,] | %11
 [C,C]2 [C,G,] [F,A,]2 [F,C] (F,>G,)[C,B,] | [F,A,]6 z2"^Play 3 times" :| %13
V:4
 x | x9 | x9 | x9 | x6 F,2 x | x9 | x9 | x9 | x9 | x9 | x9 | x6 B,,3 | x8 :| %13

